X:86
T:Colonel Rodger's Favorite
S: Liam O'Flynn "McKenna's #1"
R:Reel
M:4/4
L:1/8
K:G
G2dB cAFA | GABc dBcA | G2dB cAFA | GBAF G2GF |
G2dB cAFA | GABc defg | afge fdcA |[1 GBAF G2GF :|[2 GBAF G2ge |]
|: fdde fdcA | dggf g2ag | fdde fdcA | GBAF G2ge |
fdde fdcA | dggf g2ag | f3e dcAF |[1 GBAF G2ge :|[2 GBAF G2GF |]

